public/assets/images/testimonials/quote2.svg

<svg width="46" height="34" viewBox="0 0 46 34" fill="none" xmlns="http://www.w3.org/2000/svg">
<path d="M0.370541 31.5714L7.41183 15.3V6.07143C7.41183 4.97857 7.53536 3.88572 7.90595 2.79286C8.15302 2.06429 8.64715 1.45714 9.26481 0.971428C10.006 0.485713 10.8707 0.242855 11.7354 0.121427C12.8472 -1.85466e-06 13.959 0 15.0708 0C16.1826 0 17.2943 9.22808e-07 18.4061 0.242858C19.2708 0.364287 20.012 0.607145 20.7532 1.09286C21.3709 1.57857 21.7415 2.18572 21.9885 2.91429C22.2356 4.00714 22.3591 5.1 22.3591 6.19286C22.3591 7.52857 22.3591 8.98571 22.1121 10.3214C21.9885 11.5357 21.7415 12.75 21.3709 13.9643C21.1238 15.0571 20.6297 16.2714 20.1356 17.2429C19.5179 18.3357 18.9003 19.4286 18.1591 20.5214L10.5001 31.8143C10.2531 32.1786 10.006 32.5429 9.63539 32.7857C9.2648 33.0286 8.8942 33.2714 8.52361 33.5143C8.02948 33.7571 7.41183 33.8786 6.91771 33.8786C6.05299 34 5.3118 34 4.44708 34C3.58236 34 2.84117 34 1.97645 33.8786C1.48233 33.8786 0.988195 33.6357 0.49407 33.3929C0.247007 33.2714 -4.95911e-05 32.9071 -4.95911e-05 32.5429C0.123482 32.3 0.123478 31.9357 0.370541 31.5714Z" fill="#615EFC"/>
<path d="M31.1299 15.3V6.07143C31.1299 4.97857 31.2534 3.88572 31.624 2.79286C31.8711 2.06429 32.3652 1.33571 32.9829 0.971428C33.7241 0.485713 34.4653 0.242855 35.33 0.121427C36.4418 -1.85466e-06 37.6771 0 38.7889 0C39.9006 0 41.0124 9.22808e-07 42.1242 0.242858C42.9889 0.364287 43.7301 0.607145 44.3478 1.09286C44.9654 1.57857 45.336 2.18572 45.5831 2.91429C45.9537 4.00714 46.0772 5.1 45.9537 6.19286C45.9537 7.52857 45.9537 8.98571 45.7066 10.3214C45.5831 11.5357 45.336 12.75 44.9654 13.9643C44.7184 15.0571 44.2242 16.2714 43.7301 17.2429C43.1125 18.3357 42.4948 19.4286 41.7536 20.5214L33.9711 31.8143C33.7241 32.1786 33.477 32.5429 33.1064 32.7857C32.7358 33.0286 32.3652 33.2714 31.9946 33.5143C31.5005 33.7571 30.8828 33.8786 30.3887 33.8786C29.6475 34 28.7828 34 28.0416 34C27.1769 34 26.4357 34 25.571 33.8786C25.0769 33.8786 24.5827 33.6357 24.0886 33.3929C23.8416 33.2714 23.5945 32.9071 23.5945 32.5429C23.5945 32.1786 23.718 31.8143 23.8416 31.45L31.1299 15.3Z" fill="#615EFC"/>
</svg>

<svg xmlns="http://www.w3.org/2000/svg" width="46" height="34" fill="none" viewBox="0 0 46 34"><path fill="#615efc" d="M.37 31.571 7.413 15.3V6.071c0-1.092.123-2.185.494-3.278.247-.729.741-1.336 1.359-1.822.741-.485 1.606-.728 2.47-.85C12.847 0 13.96 0 15.071 0s2.223 0 3.335.243c.865.121 1.606.364 2.347.85.618.486.988 1.093 1.235 1.821q.371 1.64.371 3.279c0 1.336 0 2.793-.247 4.128a19 19 0 0 1-.741 3.643c-.247 1.093-.741 2.307-1.235 3.279-.618 1.093-1.236 2.186-1.977 3.278L10.5 31.814c-.247.365-.494.729-.865.972l-1.111.728a3.9 3.9 0 0 1-1.606.365C6.053 34 5.312 34 4.448 34c-.866 0-1.607 0-2.472-.121-.494 0-.988-.243-1.482-.486-.247-.122-.494-.486-.494-.85.123-.243.123-.607.37-.972M31.13 15.3V6.071c0-1.092.123-2.185.494-3.278.247-.729.741-1.457 1.359-1.822.741-.485 1.482-.728 2.347-.85C36.442 0 37.677 0 38.789 0s2.223 0 3.335.243c.865.121 1.606.364 2.224.85.617.486.988 1.093 1.235 1.821q.555 1.64.37 3.279c0 1.336 0 2.793-.246 4.128a19 19 0 0 1-.742 3.643c-.247 1.093-.74 2.307-1.235 3.279-.617 1.093-1.235 2.186-1.976 3.278L33.97 31.814c-.247.365-.494.729-.865.972l-1.111.728a3.9 3.9 0 0 1-1.606.365c-.741.121-1.606.121-2.347.121-.865 0-1.606 0-2.471-.121-.494 0-.988-.243-1.482-.486-.247-.122-.494-.486-.494-.85s.123-.729.247-1.093z"/></svg>
